packages/icons/raw/imported/FilesClipboard.svg

<svg width="32" height="32" viewBox="0 0 32 32" fill="none" xmlns="http://www.w3.org/2000/svg">
<path d="M23.5 10.6923H23H23.5ZM23.5 23.5H24H23.5ZM10.5 25.5V26V25.5ZM21.5 25.5V25V25.5ZM8.5 10.6923L9 10.6923V10.6923L8.5 10.6923ZM8.50002 23.5H8.00002H8.50002ZM20.5 8.19231C20.2239 8.19231 20 8.41617 20 8.69231C20 8.96845 20.2239 9.19231 20.5 9.19231V8.19231ZM11.5 9.19231C11.7761 9.19231 12 8.96845 12 8.69231C12 8.41617 11.7761 8.19231 11.5 8.19231V9.19231ZM14.8351 7.04067L15.2192 7.36084L14.8351 7.04067ZM17.1649 7.04067L16.7809 7.36084L17.1649 7.04067ZM23 10.6923L23 23.5H24L24 10.6923H23ZM10.5 26L21.5 26V25L10.5 25V26ZM8 10.6923L8.00002 23.5H9.00002L9 10.6923L8 10.6923ZM20.5 9.19231H21.5V8.19231H20.5V9.19231ZM10.5 9.19231H11.5V8.19231H10.5V9.19231ZM9 10.6923C9 9.86388 9.67157 9.19231 10.5 9.19231V8.19231C9.11929 8.19231 8 9.3116 8 10.6923L9 10.6923ZM10.5 25C9.67159 25 9.00002 24.3284 9.00002 23.5H8.00002C8.00002 24.8807 9.1193 26 10.5 26V25ZM23 23.5C23 24.3284 22.3284 25 21.5 25V26C22.8807 26 24 24.8807 24 23.5H23ZM24 10.6923C24 9.3116 22.8807 8.19231 21.5 8.19231V9.19231C22.3284 9.19231 23 9.86388 23 10.6923H24ZM16 7C16.3183 7 16.5985 7.14212 16.7809 7.36084L17.5489 6.72049C17.1812 6.27945 16.6222 6 16 6V7ZM15.2192 7.36084C15.4015 7.14212 15.6818 7 16 7V6C15.3779 6 14.8188 6.27945 14.4511 6.72049L15.2192 7.36084ZM12.5 8.46154H13.5V7.46154H12.5V8.46154ZM12 9.88462V8.96154H11V9.88462H12ZM19.5 10.3846H12.5V11.3846H19.5V10.3846ZM20 8.96154V9.88462H21V8.96154H20ZM18.5 8.46154H19.5V7.46154H18.5V8.46154ZM21 8.96154C21 8.13311 20.3284 7.46154 19.5 7.46154V8.46154C19.7762 8.46154 20 8.6854 20 8.96154H21ZM19.5 11.3846C20.3284 11.3846 21 10.713 21 9.88462H20C20 10.1608 19.7762 10.3846 19.5 10.3846V11.3846ZM11 9.88462C11 10.713 11.6716 11.3846 12.5 11.3846V10.3846C12.2239 10.3846 12 10.1608 12 9.88462H11ZM12.5 7.46154C11.6716 7.46154 11 8.13311 11 8.96154H12C12 8.6854 12.2239 8.46154 12.5 8.46154V7.46154ZM14.4511 6.72049C14.2711 6.93639 14.105 7.1289 13.9289 7.2704C13.7558 7.40949 13.6186 7.46154 13.5 7.46154V8.46154C13.9337 8.46154 14.2873 8.26525 14.5552 8.04996C14.8202 7.83707 15.0455 7.56915 15.2192 7.36084L14.4511 6.72049ZM16.7809 7.36084C16.9545 7.56915 17.1798 7.83707 17.4448 8.04996C17.7128 8.26525 18.0663 8.46154 18.5 8.46154V7.46154C18.3814 7.46154 18.2443 7.40949 18.0711 7.2704C17.895 7.1289 17.7289 6.93639 17.5489 6.72049L16.7809 7.36084Z" fill="black"/>
</svg>

<svg width="32" height="32" fill="none" xmlns="http://www.w3.org/2000/svg"><path d="M23.5 10.692H23h.5Zm0 12.808h.5-.5Zm-13 2v.5-.5Zm11 0V25v.5Zm-13-14.808H9h-.5Zm0 12.808H8h.5Zm12-15.308a.5.5 0 0 0 0 1v-1Zm-9 1a.5.5 0 0 0 0-1v1Zm3.335-2.151.384.32-.384-.32Zm2.33 0-.384.32.384-.32ZM23 10.692V23.5h1V10.692h-1ZM10.5 26h11v-1h-11v1ZM8 10.692V23.5h1V10.692H8Zm12.5-1.5h1v-1h-1v1Zm-10 0h1v-1h-1v1Zm-1.5 1.5a1.5 1.5 0 0 1 1.5-1.5v-1a2.5 2.5 0 0 0-2.5 2.5h1ZM10.5 25A1.5 1.5 0 0 1 9 23.5H8a2.5 2.5 0 0 0 2.5 2.5v-1ZM23 23.5a1.5 1.5 0 0 1-1.5 1.5v1a2.5 2.5 0 0 0 2.5-2.5h-1Zm1-12.808a2.5 2.5 0 0 0-2.5-2.5v1a1.5 1.5 0 0 1 1.5 1.5h1ZM16 7c.318 0 .599.142.78.36l.769-.64A2.012 2.012 0 0 0 16 6v1Zm-.78.36c.181-.218.462-.36.78-.36V6c-.622 0-1.181.28-1.549.72l.768.64ZM12.5 8.463h1v-1h-1v1ZM12 9.885v-.923h-1v.923h1Zm7.5.5h-7v1h7v-1Zm.5-1.423v.923h1v-.923h-1Zm-1.5-.5h1v-1h-1v1Zm2.5.5a1.5 1.5 0 0 0-1.5-1.5v1a.5.5 0 0 1 .5.5h1Zm-1.5 2.423a1.5 1.5 0 0 0 1.5-1.5h-1a.5.5 0 0 1-.5.5v1Zm-8.5-1.5a1.5 1.5 0 0 0 1.5 1.5v-1a.5.5 0 0 1-.5-.5h-1Zm1.5-2.423a1.5 1.5 0 0 0-1.5 1.5h1a.5.5 0 0 1 .5-.5v-1Zm1.951-.742c-.18.216-.346.409-.522.55-.173.14-.31.192-.429.192v1c.434 0 .787-.197 1.055-.412.265-.213.49-.48.664-.69l-.768-.64Zm2.33.64c.174.21.399.477.664.69.268.215.621.412 1.055.412v-1c-.119 0-.256-.053-.429-.192a3.957 3.957 0 0 1-.522-.55l-.768.64Z" fill="#000"/></svg>
